modules/hawcons-stroke/icons/icon-49-one-finger-swipe-up.svg

<?xml version="1.0" encoding="UTF-8" standalone="no"?>
<svg width="32px" height="32px" viewBox="0 0 32 32" version="1.1" xmlns="http://www.w3.org/2000/svg" xmlns:xlink="http://www.w3.org/1999/xlink" xmlns:sketch="http://www.bohemiancoding.com/sketch/ns">
    <!-- Generator: Sketch 3.0.3 (7891) - http://www.bohemiancoding.com/sketch -->
    <title>icon 49 one finger swipe up</title>
    <desc>Created with Sketch.</desc>
    <defs></defs>
    <g id="Page-1" stroke="none" stroke-width="1" fill="none" fill-rule="evenodd" sketch:type="MSPage">
        <g id="icon-49-one-finger-swipe-up" sketch:type="MSArtboardGroup" fill="#929292">
            <path d="M16,10.0274511 C13.7500248,10.276064 12,12.1829929 12,14.5050269 L12,31 L21,31 L21,14.5050269 C21,12.1864709 19.2460491,10.2770029 17,10.0275945 L17,3.950001 L20.25,7.200001 L21,6.450001 L16.5,1.950001 L12,6.450001 L12.75,7.200001 L16,3.950001 L16,3.950001 L16,10.0274511 L16,10.0274511 Z M16.5,11 C14.5670034,11 13,12.5710144 13,14.5070349 L13,30 L20,30 L20,14.5070349 C20,12.570153 18.4290634,11 16.5,11 L16.5,11 Z M16.5,12 C15.1192881,12 14,13.1285541 14,14.5097752 L14,18 L19,18 L19,14.5097752 C19,13.1236646 17.8903379,12 16.5,12 L16.5,12 Z M16.5,13 C15.6715729,13 15,13.6785455 15,14.5008327 L15,17 L18,17 L18,14.5008327 C18,13.6719457 17.3342028,13 16.5,13 L16.5,13 Z M14,21 L14,22 L19,22 L19,21 L14,21 L14,21 Z M14,23 L14,24 L19,24 L19,23 L14,23 L14,23 Z" id="one-finger-swipe-up" sketch:type="MSShapeGroup"></path>
        </g>
    </g>
</svg>

<svg width="32" height="32" viewBox="0 0 32 32" xmlns="http://www.w3.org/2000/svg"><path d="M16 10.027c-2.25.25-4 2.156-4 4.478V31h9V14.505a4.508 4.508 0 0 0-4-4.477V3.95l3.25 3.25.75-.75-4.5-4.5-4.5 4.5.75.75L16 3.95v6.077zm.5.973a3.504 3.504 0 0 0-3.5 3.507V30h7V14.507A3.506 3.506 0 0 0 16.5 11zm0 1c-1.38 0-2.5 1.129-2.5 2.51V18h5v-3.49c0-1.386-1.11-2.51-2.5-2.51zm0 1c-.828 0-1.5.679-1.5 1.5V17h3v-2.5c0-.828-.666-1.5-1.5-1.5zM14 21v1h5v-1h-5zm0 2v1h5v-1h-5z" fill="#929292" fill-rule="evenodd"/></svg>
